X:0046
M:6/8
L:1/8
Q:3/8=120
K:A Dorian
a|cAA eAA|cBA  GAB|cAA eAA|dcB A2
a|cAA eAA|cBA  GAB|A2a e2c|dcB A2:|
f|gag f2e|d^cd GAB|A2a e2c|dBG A2:|

